X: 30112
M: 3/8	% The book has M:3/4, but this doesn't agree with the music.
L: 1/16
K: F
c2 |\
c2f2A2 | A2c2f2 | a>gf>ed>c | B2G2 g2 |\
g2b2e2 | e2g2e2 | (=Bc_d=d_e=e) | f4 :|
|: G>A |\


